X: 41755
T: Van Diemens Land
R: reel
M: 4/4
K: Gdorian
G2|C3 C C2 C2|EF G4 D2|F2 EC B,C D2|C4 z2||
G2|C C3 E2 G2|c c3 E2 GA|B3 c A/G/ F2 A|G4 z2||
GA/B/|c2 c2 G2 A2|B c3 c2 E2|F3 F B3 A|G F3 z2||
EF|G2 G2 C2 DE|F3 D B,3 C|D2 C2 C C3|C4 z2||

